assets/search/brave.svg

<?xml version="1.0" encoding="UTF-8"?>
<svg width="218px" height="256px" viewBox="0 0 218 256" version="1.1" xmlns="http://www.w3.org/2000/svg" xmlns:xlink="http://www.w3.org/1999/xlink">
    <!-- Generator: Sketch 51.2 (57519) - http://www.bohemiancoding.com/sketch -->
    <title>build-icons/Stable Copy 3</title>
    <desc>Created with Sketch.</desc>
    <defs>
        <linearGradient x1="0%" y1="50.7055163%" x2="100%" y2="50.7055163%" id="linearGradient-1">
            <stop stop-color="#FF5500" offset="0%"></stop>
            <stop stop-color="#FF5500" offset="40.9877232%"></stop>
            <stop stop-color="#FF2000" offset="58.1981215%"></stop>
            <stop stop-color="#FF2000" offset="100%"></stop>
        </linearGradient>
        <linearGradient x1="2.1484375%" y1="50.7055163%" x2="100%" y2="50.7055163%" id="linearGradient-2">
            <stop stop-color="#FF452A" offset="0%"></stop>
            <stop stop-color="#FF2000" offset="100%"></stop>
        </linearGradient>
        <path d="M170.272109,25.3359387 L147.968109,0.00010893617 L108.800109,0.00010893617 L69.6321088,0.00010893617 L47.3281088,25.3359387 C47.3281088,25.3359387 27.7441088,19.8891302 18.4961088,29.1487047 C18.4961088,29.1487047 44.6081088,26.7886026 53.5841088,41.4040238 C53.5841088,41.4040238 77.7921088,46.0338111 81.0561088,46.0338111 C84.3201088,46.0338111 91.3921088,43.3104068 97.9201088,41.1316834 C104.448109,38.95296 108.800109,38.9371643 108.800109,38.9371643 C108.800109,38.9371643 113.152109,38.95296 119.680109,41.1316834 C126.208109,43.3104068 133.280109,46.0338111 136.544109,46.0338111 C139.808109,46.0338111 164.016109,41.4040238 164.016109,41.4040238 C172.992109,26.7886026 199.104109,29.1487047 199.104109,29.1487047 C189.856109,19.8891302 170.272109,25.3359387 170.272109,25.3359387" id="path-3"></path>
    </defs>
    <g id="starting-collection" stroke="none" stroke-width="1" fill="none" fill-rule="evenodd">
        <g id="Build-Icons" transform="translate(-70.000000, -350.000000)">
            <g id="build-icons/Stable" transform="translate(50.000000, 350.000000)">
                <g id="Logo" transform="translate(20.114286, 0.000000)">
                    <path d="M209.984109,61.2848749 L215.968109,46.5784919 C215.968109,46.5784919 208.352109,38.4082791 199.104109,29.1487047 C189.856109,19.8891302 170.272109,25.3359387 170.272109,25.3359387 L147.968109,0.00010893617 L108.800109,0.00010893617 L69.6321088,0.00010893617 L47.3281088,25.3359387 C47.3281088,25.3359387 27.7441088,19.8891302 18.4961088,29.1487047 C9.2481088,38.4082791 1.6321088,46.5784919 1.6321088,46.5784919 L7.6161088,61.2848749 L0.0001088,83.0721089 C0.0001088,83.0721089 22.3993088,168.017811 25.0241088,178.391258 C30.1921088,198.81679 33.7281088,206.714662 48.4161088,217.063598 C63.1041088,227.412534 89.7601088,245.387003 94.1121088,248.110407 C98.4641088,250.833811 103.904109,255.472858 108.800109,255.472858 C113.696109,255.472858 119.136109,250.833811 123.488109,248.110407 C127.840109,245.387003 154.496109,227.412534 169.184109,217.063598 C183.872109,206.714662 187.408109,198.81679 192.576109,178.391258 C195.200365,168.017811 217.600109,83.0721089 217.600109,83.0721089 L209.984109,61.2848749 Z" id="Head" fill="url(#linearGradient-1)"></path>
                    <path d="M164.016109,41.4040238 C164.016109,41.4040238 192.704493,76.1274281 192.704493,83.5487047 C192.704493,90.9699813 189.095597,92.9286536 185.467117,96.7866281 C181.838637,100.644603 165.991373,117.49376 163.956269,119.657232 C161.921165,121.821249 157.684493,125.101862 160.176557,131.006747 C162.668621,136.911632 166.344973,144.425505 162.256813,152.046679 C158.168109,159.667854 151.164109,164.754628 146.676109,163.913641 C142.188109,163.072109 131.648109,157.557215 127.772109,155.038066 C123.896109,152.518917 111.611501,142.374781 111.611501,138.493386 C111.611501,134.612534 124.310093,127.643888 126.655821,126.0605 C129.002637,124.477658 139.703117,118.349454 139.922349,115.944143 C140.141037,113.538288 140.057805,112.832926 136.899885,106.889369 C133.741965,100.945266 128.054989,93.0136238 129.001549,87.7362111 C129.948109,82.459343 139.119949,79.7152409 145.665357,77.2402111 C152.209677,74.765726 164.811437,70.0918196 166.385229,69.3652153 C167.960109,68.6380664 167.553197,67.945777 162.783949,67.4931472 C158.015789,67.0405174 144.483245,65.2419813 138.382285,66.9446536 C132.281325,68.647326 121.858285,71.2378281 121.013997,72.6115132 C120.169709,73.9851983 119.424973,74.0314962 120.292109,78.7702196 C121.158701,83.508943 125.622765,106.24719 126.055789,110.285998 C126.489357,114.324807 127.336909,116.994832 122.987629,117.990509 C118.637805,118.986186 111.316109,120.715003 108.800109,120.715003 C106.284109,120.715003 98.9618688,118.986186 94.6125888,117.990509 C90.2627648,116.994832 91.1103168,114.324807 91.5438848,110.285998 C91.9774528,106.24719 96.4409728,83.508943 97.3081088,78.7702196 C98.1747008,74.0314962 97.4299648,73.9851983 96.5862208,72.6115132 C95.7419328,71.2378281 85.3183488,68.647326 79.2173888,66.9446536 C73.1164288,65.2419813 59.5844288,67.0405174 54.8157248,67.4931472 C50.0470208,67.945777 49.6401088,68.6380664 51.2144448,69.3652153 C52.7887808,70.0918196 65.3905408,74.765726 71.9348608,77.2402111 C78.4797248,79.7152409 87.6521088,82.459343 88.5986688,87.7362111 C89.5452288,93.0136238 83.8577088,100.945266 80.7003328,106.889369 C77.5424128,112.832926 77.4586368,113.538288 77.6778688,115.944143 C77.8965568,118.349454 88.5975808,124.477658 90.9438528,126.0605 C93.2901248,127.643888 105.988173,134.612534 105.988173,138.493386 C105.988173,142.374781 93.7041088,152.518917 89.8281088,155.038066 C85.9521088,157.557215 75.4121088,163.072109 70.9241088,163.913641 C66.4361088,164.754628 59.4321088,159.667854 55.3434048,152.046679 C51.2552448,144.425505 54.9315968,136.911632 57.4231168,131.006747 C59.9151808,125.101862 55.6790528,121.821249 53.6434048,119.657232 C51.6088448,117.49376 35.7610368,100.644603 32.1325568,96.7866281 C28.5040768,92.9286536 24.8957248,90.9699813 24.8957248,83.5487047 C24.8957248,76.1274281 53.5841088,41.4040238 53.5841088,41.4040238 C53.5841088,41.4040238 77.7921088,46.0338111 81.0561088,46.0338111 C84.3201088,46.0338111 91.3921088,43.3104068 97.9201088,41.1316834 C104.448109,38.95296 108.800109,38.9371643 108.800109,38.9371643 C108.800109,38.9371643 113.152109,38.95296 119.680109,41.1316834 C126.208109,43.3104068 133.280109,46.0338111 136.544109,46.0338111 C139.808109,46.0338111 164.016109,41.4040238 164.016109,41.4040238 Z M142.509504,174.227935 C144.28512,175.341263 143.202016,177.439918 141.584704,178.584837 C139.966848,179.729757 118.228064,196.584361 116.118432,198.447169 C114.008256,200.310523 110.908,203.387425 108.8,203.387425 C106.692,203.387425 103.5912,200.310523 101.481568,198.447169 C99.371392,196.584361 77.633152,179.729757 76.015296,178.584837 C74.39744,177.439918 73.31488,175.341263 75.090496,174.227935 C76.866656,173.115152 82.422528,170.306233 90.08912,166.333876 C97.754624,162.362063 107.308896,158.985042 108.8,158.985042 C110.291104,158.985042 119.844832,162.362063 127.511424,166.333876 C135.177472,170.306233 140.733344,173.115152 142.509504,174.227935 Z" id="Face" fill="#FFFFFF"></path>
                    <mask id="mask-4" fill="white">
                        <use xlink:href="#path-3"></use>
                    </mask>
                    <use id="Top-Head" fill="url(#linearGradient-2)" xlink:href="#path-3"></use>
                </g>
            </g>
        </g>
    </g>
</svg>

<?xml version="1.0" encoding="UTF-8" standalone="no"?>
<svg
   width="20"
   height="23.486238"
   viewBox="0 0 20 23.486238"
   version="1.1"
   id="svg6"
   sodipodi:docname="brave.svg"
   inkscape:export-filename="brave_small.svg"
   inkscape:export-xdpi="95.999992"
   inkscape:export-ydpi="95.999992"
   inkscape:version="1.3 (0e150ed6c4, 2023-07-21)"
   xmlns:inkscape="http://www.inkscape.org/namespaces/inkscape"
   xmlns:sodipodi="http://sodipodi.sourceforge.net/DTD/sodipodi-0.dtd"
   xmlns:xlink="http://www.w3.org/1999/xlink"
   xmlns="http://www.w3.org/2000/svg"
   xmlns:svg="http://www.w3.org/2000/svg"
   xmlns:rdf="http://www.w3.org/1999/02/22-rdf-syntax-ns#"
   xmlns:cc="http://creativecommons.org/ns#"
   xmlns:dc="http://purl.org/dc/elements/1.1/">
  <sodipodi:namedview
     id="namedview6"
     pagecolor="#ffffff"
     bordercolor="#000000"
     borderopacity="0.25"
     inkscape:showpageshadow="2"
     inkscape:pageopacity="0.0"
     inkscape:pagecheckerboard="0"
     inkscape:deskcolor="#d1d1d1"
     inkscape:zoom="3.1367188"
     inkscape:cx="109.03113"
     inkscape:cy="128"
     inkscape:window-width="2560"
     inkscape:window-height="1007"
     inkscape:window-x="0"
     inkscape:window-y="0"
     inkscape:window-maximized="1"
     inkscape:current-layer="svg6" />
  <!-- Generator: Sketch 51.2 (57519) - http://www.bohemiancoding.com/sketch -->
  <title
     id="title1">build-icons/Stable Copy 3</title>
  <desc
     id="desc1">Created with Sketch.</desc>
  <defs
     id="defs6">
    <linearGradient
       x1="0.00011788858"
       y1="119.55213"
       x2="235.77728"
       y2="119.55213"
       id="linearGradient-1"
       gradientTransform="scale(0.92290533,1.0835348)"
       gradientUnits="userSpaceOnUse">
      <stop
         stop-color="#FF5500"
         offset="0%"
         id="stop1" />
      <stop
         stop-color="#FF5500"
         offset="40.9877232%"
         id="stop2" />
      <stop
         stop-color="#FF2000"
         offset="58.1981215%"
         id="stop3" />
      <stop
         stop-color="#FF2000"
         offset="100%"
         id="stop4" />
    </linearGradient>
    <linearGradient
       x1="11.296889"
       y1="46.234234"
       x2="100.51935"
       y2="46.234234"
       id="linearGradient-2"
       gradientTransform="scale(1.980754,0.50485825)"
       gradientUnits="userSpaceOnUse">
      <stop
         stop-color="#FF452A"
         offset="0%"
         id="stop5" />
      <stop
         stop-color="#FF2000"
         offset="100%"
         id="stop6" />
    </linearGradient>
    <path
       d="M 170.27211,25.335939 147.96811,1.0893617e-4 h -39.168 -39.168001 L 47.328109,25.335939 c 0,0 -19.584,-5.446809 -28.832,3.812766 0,0 26.112,-2.360102 35.088,12.255319 0,0 24.208,4.629787 27.472,4.629787 3.264,0 10.336,-2.723404 16.864,-4.902128 6.528001,-2.178723 10.880001,-2.194519 10.880001,-2.194519 0,0 4.352,0.0158 10.88,2.194519 6.528,2.178724 13.6,4.902128 16.864,4.902128 3.264,0 27.472,-4.629787 27.472,-4.629787 8.976,-14.615421 35.088,-12.255319 35.088,-12.255319 -9.248,-9.259575 -28.832,-3.812766 -28.832,-3.812766"
       id="path-3" />
  </defs>
  <g
     id="starting-collection"
     stroke="none"
     stroke-width="1"
     fill="none"
     fill-rule="evenodd"
     transform="matrix(0.09191176,0,0,0.09191176,0.10388057,9.8923658e-5)">
    <g
       id="Build-Icons"
       transform="translate(-70,-350)">
      <g
         id="build-icons/Stable"
         transform="translate(50,350)">
        <g
           id="Logo"
           transform="translate(20.114286)">
          <path
             d="m 209.98411,61.284875 5.984,-14.706383 c 0,0 -7.616,-8.170213 -16.864,-17.429787 -9.248,-9.259575 -28.832,-3.812766 -28.832,-3.812766 L 147.96811,1.0893617e-4 h -39.168 -39.168001 L 47.328109,25.335939 c 0,0 -19.584,-5.446809 -28.832,3.812766 C 9.2481088,38.408279 1.6321088,46.578492 1.6321088,46.578492 l 5.984,14.706383 -7.616,21.787234 c 0,0 22.3992002,84.945701 25.0240002,95.319151 5.168,20.42553 8.704,28.3234 23.392,38.67234 14.688,10.34893 41.344,28.3234 45.696,31.04681 4.352,2.7234 9.792001,7.36245 14.688001,7.36245 4.896,0 10.336,-4.63905 14.688,-7.36245 4.352,-2.72341 31.008,-20.69788 45.696,-31.04681 14.688,-10.34894 18.224,-18.24681 23.392,-38.67234 2.62425,-10.37345 25.024,-95.319151 25.024,-95.319151 z"
             id="Head"
             fill="url(#linearGradient-1)"
             style="fill:url(#linearGradient-1)" />
          <path
             d="m 164.01611,41.404024 c 0,0 28.68838,34.723404 28.68838,42.144681 0,7.421276 -3.60889,9.379949 -7.23737,13.237923 -3.62848,3.857972 -19.47575,20.707132 -21.51085,22.870602 -2.03511,2.16402 -6.27178,5.44463 -3.77971,11.34952 2.49206,5.90488 6.16841,13.41875 2.08025,21.03993 -4.0887,7.62117 -11.0927,12.70795 -15.5807,11.86696 -4.488,-0.84153 -15.028,-6.35642 -18.904,-8.87557 -3.876,-2.51915 -16.16061,-12.66329 -16.16061,-16.54468 0,-3.88086 12.69859,-10.8495 15.04432,-12.43289 2.34682,-1.58284 13.0473,-7.71105 13.26653,-10.11636 0.21869,-2.40585 0.13545,-3.11121 -3.02247,-9.05477 -3.15792,-5.9441 -8.84489,-13.875746 -7.89833,-19.153159 0.94656,-5.276868 10.1184,-8.02097 16.66381,-10.496 6.54432,-2.474485 19.14608,-7.148391 20.71987,-7.874996 1.57488,-0.727149 1.16797,-1.419438 -3.60128,-1.872068 -4.76816,-0.45263 -18.30071,-2.251166 -24.40167,-0.548493 -6.10096,1.702672 -16.524,4.293174 -17.36828,5.666859 -0.84429,1.373685 -1.58903,1.419983 -0.72189,6.158707 0.86659,4.738723 5.33066,27.47697 5.76368,31.51578 0.43357,4.03881 1.28112,6.70883 -3.06816,7.70451 -4.34982,0.99568 -11.67152,2.72449 -14.18752,2.72449 -2.516,0 -9.838241,-1.72881 -14.187521,-2.72449 -4.349824,-0.99568 -3.502272,-3.6657 -3.068704,-7.70451 0.433568,-4.03881 4.897088,-26.777057 5.764224,-31.51578 0.866592,-4.738724 0.121856,-4.785022 -0.721888,-6.158707 -0.844288,-1.373685 -11.267872,-3.964187 -17.368832,-5.666859 -6.10096,-1.702673 -19.63296,0.09586 -24.401664,0.548493 -4.768704,0.45263 -5.175616,1.144919 -3.60128,1.872068 1.574336,0.726605 14.176096,5.400511 20.720416,7.874996 6.544864,2.47503 15.717248,5.219132 16.663808,10.496 0.94656,5.277413 -4.74096,13.209059 -7.898336,19.153159 -3.15792,5.94356 -3.241696,6.64892 -3.022464,9.05477 0.218688,2.40531 10.919712,8.53352 13.265984,10.11636 2.346272,1.58339 15.044317,8.55203 15.044317,12.43289 0,3.88139 -12.284061,14.02553 -16.160061,16.54468 -3.876,2.51915 -14.416,8.03404 -18.904,8.87557 -4.488,0.84099 -11.492,-4.24579 -15.580704,-11.86696 -4.08816,-7.62118 -0.411808,-15.13505 2.079712,-21.03993 2.492064,-5.90489 -1.744064,-9.1855 -3.779712,-11.34952 -2.03456,-2.16347 -17.882368,-19.01263 -21.510848,-22.870602 -3.62848,-3.857974 -7.236832,-5.816647 -7.236832,-13.237923 0,-7.421277 28.688384,-42.144681 28.688384,-42.144681 0,0 24.208,4.629787 27.472,4.629787 3.264,0 10.336,-2.723404 16.864,-4.902128 6.528001,-2.178723 10.880001,-2.194519 10.880001,-2.194519 0,0 4.352,0.0158 10.88,2.194519 6.528,2.178724 13.6,4.902128 16.864,4.902128 3.264,0 27.472,-4.629787 27.472,-4.629787 z M 142.5095,174.22793 c 1.77562,1.11333 0.69252,3.21199 -0.9248,4.35691 -1.61785,1.14492 -23.35664,17.99952 -25.46627,19.86233 -2.11017,1.86335 -5.21043,4.94025 -7.31843,4.94025 -2.108,0 -5.2088,-3.0769 -7.31843,-4.94025 -2.110178,-1.86281 -23.848418,-18.71741 -25.466274,-19.86233 -1.617856,-1.14492 -2.700416,-3.24358 -0.9248,-4.35691 1.77616,-1.11278 7.332032,-3.9217 14.998624,-7.89405 7.665504,-3.97182 17.21978,-7.34884 18.71088,-7.34884 1.4911,0 11.04483,3.37702 18.71142,7.34884 7.66605,3.97235 13.22192,6.78127 14.99808,7.89405 z"
             id="Face"
             fill="#ffffff" />
          <mask
             id="mask-4"
             fill="#ffffff">
            <use
               xlink:href="#path-3"
               id="use6" />
          </mask>
          <use
             id="Top-Head"
             fill="url(#linearGradient-2)"
             xlink:href="#path-3"
             style="fill:url(#linearGradient-2)" />
        </g>
      </g>
    </g>
  </g>
  <metadata
     id="metadata6">
    <rdf:RDF>
      <cc:Work
         rdf:about="">
        <dc:title>build-icons/Stable Copy 3</dc:title>
      </cc:Work>
    </rdf:RDF>
  </metadata>
</svg>
